assets/Man teacher/Medium-Light/Flat/man_teacher_flat_medium-light.svg

<svg width="32" height="32" viewBox="0 0 32 32" fill="none" xmlns="http://www.w3.org/2000/svg">
<path d="M3 7L10.5 19L27.5 24L29.8062 24.8062C29.9175 24.6925 29.985 24.535 29.98 24.36V4.62C29.98 4.28 29.71 4 29.36 4H2.62C2.45 4 2.295 4.07 2.1825 4.1825L3 7Z" fill="#FFCE7C"/>
<path d="M2.62 24.9901H29.37C29.54 24.9901 29.695 24.9201 29.8062 24.8064L29 24.0001L3 5.00012L2.1825 4.18262C2.07 4.29512 2 4.45012 2 4.62012V24.3701C2 24.7101 2.28 24.9901 2.62 24.9901Z" fill="#E19747"/>
<path d="M3 23.99V5H28.99V23.99H3Z" fill="#44911B"/>
<path d="M9 18.0145C10.9026 16.4434 13.342 15.5 16 15.5C18.6599 15.5 21.099 16.4448 23 18.0179L24.5 24L23 30H9L7.5 24L9 18.0145Z" fill="#8C5543"/>
<path d="M11.29 18.94L12.65 16H14V30L11.2 22.13C11.07 21.78 11.17 21.39 11.43 21.13L12.79 19.8C12.95 19.64 12.84 19.35 12.6 19.35H11.55C11.34 19.35 11.2 19.13 11.29 18.94Z" fill="#6D4534"/>
<path d="M20.76 18.94L19.4 16H18V30L20.85 22.13C20.98 21.78 20.88 21.39 20.62 21.13L19.26 19.8C19.1 19.64 19.21 19.35 19.45 19.35H20.5C20.71 19.35 20.85 19.13 20.76 18.94Z" fill="#6D4534"/>
<path d="M9.00005 18C6.57005 20.03 4.99005 23.09 5.00005 26.5V30H9.00005V18Z" fill="#6D4534"/>
<path d="M23 18V30H27V29.0098C27 29.0065 27 29.0033 27 29L26.99 26.49C26.99 23.08 25.45 20.02 23 18Z" fill="#6D4534"/>
<path d="M18.0499 16.8201H13.9399V30.0001H18.0499V16.8201Z" fill="#E6E6E6"/>
<path d="M16 18.6817C14.8932 18.6817 14 17.7617 14 16.6217V14.0617C14 12.9217 14.8932 12.0017 16 12.0017C17.1068 12.0017 18 12.9217 18 14.0617V16.6217C18 17.7617 17.1068 18.6817 16 18.6817Z" fill="#E4B29A"/>
<path d="M12.8 10.8116C12.8 11.7284 12.0568 12.4716 11.14 12.4716C10.2232 12.4716 9.47998 11.7284 9.47998 10.8116C9.47998 9.89482 10.2232 9.15161 11.14 9.15161C12.0568 9.15161 12.8 9.89482 12.8 10.8116Z" fill="#E4B29A"/>
<path d="M22.52 10.8116C22.52 11.7284 21.7767 12.4716 20.86 12.4716C19.9432 12.4716 19.2 11.7284 19.2 10.8116C19.2 9.89482 19.9432 9.15161 20.86 9.15161C21.7767 9.15161 22.52 9.89482 22.52 10.8116Z" fill="#E4B29A"/>
<path d="M15.55 3.3916C12.73 3.3916 10.5 5.7816 10.7 8.6016L11.1 14.2516C11.27 16.0216 12.67 17.2916 14.37 17.2916H17.63C19.33 17.2916 20.73 16.0216 20.9 14.2516L21.3 8.6016C21.5 5.7916 19.27 3.3916 16.45 3.3916H15.55Z" fill="#EEBFAA"/>
<path d="M12.21 10.5016C12.36 9.89164 12.92 9.43164 13.58 9.43164C14.27 9.43164 14.84 9.92164 14.97 10.5716C15 10.7116 14.89 10.8416 14.74 10.8416H12.48C12.3 10.8416 12.17 10.6816 12.21 10.5016Z" fill="white"/>
<path d="M19.8 10.5016C19.65 9.89164 19.09 9.43164 18.43 9.43164C17.74 9.43164 17.17 9.92164 17.04 10.5716C17.01 10.7116 17.12 10.8416 17.27 10.8416H19.53C19.71 10.8416 19.84 10.6816 19.8 10.5016Z" fill="white"/>
<path d="M12.88 10.6117C12.88 10.1117 13.29 9.70166 13.79 9.70166C14.29 9.70166 14.69 10.1017 14.69 10.6117C14.69 10.6917 14.68 10.7717 14.66 10.8517H12.91C12.89 10.7717 12.88 10.6917 12.88 10.6117Z" fill="#7D4533"/>
<path d="M19.13 10.6117C19.13 10.1117 18.72 9.70166 18.22 9.70166C17.72 9.70166 17.31 10.1017 17.32 10.6117C17.32 10.6917 17.33 10.7717 17.35 10.8517H19.1C19.12 10.7717 19.13 10.6917 19.13 10.6117Z" fill="#7D4533"/>
<path d="M13.78 10.0818C14.07 10.0818 14.3 10.3118 14.3 10.6018C14.3 10.6918 14.28 10.7718 14.24 10.8418H13.32C13.28 10.7718 13.26 10.6918 13.26 10.6018C13.26 10.3118 13.49 10.0818 13.78 10.0818Z" fill="black"/>
<path d="M18.22 10.0818C17.93 10.0818 17.7 10.3118 17.7 10.6018C17.7 10.6918 17.72 10.7718 17.76 10.8418H18.68C18.72 10.7718 18.74 10.6918 18.74 10.6018C18.74 10.3118 18.51 10.0818 18.22 10.0818Z" fill="black"/>
<path d="M13.6399 10.2518C13.6399 10.3402 13.5683 10.4118 13.4799 10.4118C13.3916 10.4118 13.3199 10.3402 13.3199 10.2518C13.3199 10.1634 13.3916 10.0918 13.4799 10.0918C13.5683 10.0918 13.6399 10.1634 13.6399 10.2518Z" fill="white"/>
<path d="M18.1 10.2518C18.1 10.3402 18.0284 10.4118 17.94 10.4118C17.8517 10.4118 17.78 10.3402 17.78 10.2518C17.78 10.1634 17.8517 10.0918 17.94 10.0918C18.0284 10.0918 18.1 10.1634 18.1 10.2518Z" fill="white"/>
<path d="M21.33 4.3917L20.9 4.1817C20.6 4.0317 20.32 3.8317 20.08 3.5917L19.24 2.7517C18.61 2.1217 17.68 1.9117 16.84 2.2017C16.3 2.3917 15.7 2.3917 15.16 2.2017C14.42 1.8317 13.53 1.9817 12.95 2.5617L11.93 3.5817C11.68 3.8217 11.41 4.0217 11.1 4.1817L10.67 4.3917C9.88 4.7917 9.44 5.6617 9.6 6.5317L10.17 9.6617C10.24 9.9717 10.51 10.2017 10.82 10.2117C10.82 10.2117 10.76 9.3217 10.72 8.7517C10.7 8.4617 10.82 8.1717 11.04 7.9717L11.23 7.8017C11.49 7.5717 11.63 7.2417 11.63 6.9017V6.0217C11.63 5.7717 11.8 5.5517 12.04 5.4917C12.69 5.3317 14.08 5.0517 16 5.0517C17.92 5.0517 19.31 5.3317 19.96 5.4917C20.2 5.5517 20.37 5.7717 20.37 6.0217V6.9017C20.37 7.2417 20.52 7.5717 20.77 7.8017L20.97 7.9817C21.19 8.1817 21.31 8.4617 21.29 8.7617C21.25 9.3317 21.19 10.2117 21.19 10.2117C21.5 10.1917 21.76 9.9717 21.82 9.6617L22.39 6.5317C22.56 5.6617 22.12 4.7917 21.33 4.3917Z" fill="#FFF9BA"/>
<path d="M19.14 8.93176C19.25 9.00177 19.36 9.04177 19.48 9.04177C19.65 9.04177 19.81 8.97177 19.91 8.82177C20.1 8.58177 20.05 8.23177 19.81 8.04177C19.78 8.01177 18.94 7.37177 17.72 7.52177C17.41 7.56177 17.19 7.84177 17.23 8.14176C17.27 8.45177 17.54 8.67177 17.85 8.63177C18.5767 8.54456 19.0781 8.88922 19.1359 8.92891C19.1377 8.93018 19.14 8.93176 19.14 8.93176Z" fill="#A56953"/>
<path d="M12.09 8.82177C12.19 8.96177 12.36 9.04177 12.53 9.04177C12.64 9.04177 12.76 9.00177 12.86 8.94177C12.88 8.92177 13.39 8.55177 14.15 8.64177C14.46 8.67177 14.73 8.45177 14.77 8.15177C14.8 7.84177 14.58 7.57177 14.28 7.53177C13.07 7.39177 12.22 8.02177 12.19 8.05177C11.95 8.23177 11.91 8.58177 12.09 8.82177Z" fill="#A56953"/>
<path d="M15.62 10.4616L15.1 12.1616C14.99 12.5116 15.25 12.8616 15.62 12.8616H16.4C16.76 12.8616 17.02 12.5116 16.92 12.1616L16.4 10.4616C16.27 10.0916 15.74 10.0916 15.62 10.4616Z" fill="#D19479"/>
<path d="M16 13.9318C15.45 13.9318 14.94 13.8018 14.5 13.5718C14.35 13.4918 14.2 13.6618 14.29 13.8018C14.65 14.3618 15.28 14.7318 16 14.7318C16.72 14.7318 17.35 14.3618 17.71 13.8018C17.8 13.6618 17.64 13.4918 17.5 13.5718C17.06 13.8018 16.55 13.9318 16 13.9318Z" fill="#990838"/>
<path d="M20.76 9.03174H17.28C16.98 9.03174 16.7 9.17174 16.51 9.40174C16.39 9.55174 16.21 9.64174 16 9.64174C15.79 9.64174 15.61 9.55174 15.49 9.40174C15.3 9.17174 15.02 9.03174 14.72 9.03174H11.24C11.05 9.03174 10.9 9.18174 10.9 9.37174V9.59174C10.9 9.70174 10.95 9.79174 11.03 9.85174C11.08 9.88174 11.1 9.93174 11.1 9.98174V11.0817C11.1 12.1317 11.95 12.9917 13.01 12.9917H13.72C14.77 12.9917 15.63 12.1417 15.63 11.0817V10.4817C15.64 10.2817 15.8 10.1317 16 10.1317C16.2 10.1317 16.36 10.2917 16.37 10.4917V10.5117C16.37 10.5117 16.37 10.5117 16.37 10.5217V11.0917C16.37 12.1517 17.23 13.0017 18.28 13.0017H19C20.06 13.0017 20.91 12.1417 20.91 11.0917V9.98174C20.91 9.93174 20.93 9.88174 20.97 9.85174C21.05 9.79174 21.1 9.69174 21.1 9.59174V9.37174C21.1 9.18174 20.95 9.03174 20.76 9.03174ZM15.3 10.9917C15.3 11.9017 14.56 12.6417 13.65 12.6417H13.1C12.19 12.6417 11.45 11.9017 11.45 10.9917V10.2617C11.45 9.77174 11.84 9.38174 12.33 9.38174H14.41C14.9 9.38174 15.29 9.77174 15.29 10.2617V10.9917H15.3ZM20.58 10.9917C20.58 11.9017 19.84 12.6417 18.93 12.6417H18.38C17.47 12.6417 16.73 11.9017 16.73 10.9917V10.2617C16.73 9.77174 17.12 9.38174 17.61 9.38174H19.7C20.19 9.38174 20.58 9.77174 20.58 10.2617V10.9917Z" fill="#433B6B"/>
<path d="M9.32996 24.1101C9.32996 23.5601 9.77996 23.1101 10.33 23.1101C10.88 23.1101 11.33 23.5601 11.33 24.1101V26.4001H9.32996V24.1101Z" fill="#E4B29A"/>
<path d="M22.6799 24.1101C22.6799 23.5601 22.2299 23.1101 21.6799 23.1101C21.1299 23.1101 20.6799 23.5601 20.6799 24.1101V26.4001H22.6799V24.1101Z" fill="#E4B29A"/>
<path d="M11.3099 22.8801V30.0001H21.6499V21.8101C21.6499 21.3601 21.2899 21.0001 20.8399 21.0001H13.1999C12.1499 20.9901 11.3099 21.8401 11.3099 22.8801Z" fill="#F92F60"/>
<path d="M10.3099 30.0001V21.8801C10.3099 20.8401 11.1499 19.9901 12.1999 20.0001H20.8399C21.2899 20.0001 21.6499 20.3601 21.6499 20.8101V21.4346H12V30.0001H10.3099Z" fill="#433B6B"/>
<path d="M21.64 20.8601H12.1C11.62 20.8601 11.23 21.2501 11.23 21.7301C11.23 22.2101 11.62 22.6001 12.1 22.6001H21.64V20.8601Z" fill="#E6E6E6"/>
<path d="M14.2599 25.49C14.2499 25.08 13.8999 24.76 13.4899 24.76V24.75H10.1899C9.70995 24.75 9.31995 25.14 9.31995 25.62V29.13C9.31995 29.61 9.70995 30 10.1899 30H13.4899C13.8999 30 14.2499 29.68 14.2599 29.27C14.2599 29 14.1299 28.76 13.9199 28.62C14.1299 28.49 14.2599 28.26 14.2599 28C14.2599 27.74 14.1199 27.51 13.9199 27.38C14.1299 27.25 14.2599 27.02 14.2599 26.76C14.2599 26.5 14.1199 26.27 13.9199 26.14C14.1299 26 14.2699 25.76 14.2599 25.49Z" fill="#EEBFAA"/>
<path d="M17.73 25.49C17.74 25.08 18.09 24.76 18.5 24.76V24.75H21.8C22.28 24.75 22.67 25.14 22.67 25.62V29.13C22.67 29.61 22.28 30 21.8 30H18.5C18.09 30 17.74 29.68 17.73 29.27C17.73 29 17.86 28.76 18.07 28.62C17.86 28.49 17.73 28.26 17.73 28C17.73 27.74 17.87 27.51 18.07 27.38C17.86 27.25 17.73 27.02 17.73 26.76C17.73 26.5 17.87 26.27 18.07 26.14C17.86 26 17.72 25.76 17.73 25.49Z" fill="#EEBFAA"/>
</svg>

<svg xmlns="http://www.w3.org/2000/svg" width="32" height="32" fill="none"><path fill="#FFCE7C" d="m3 7 7.5 12 17 5 2.306.806a.61.61 0 0 0 .174-.446V4.62c0-.34-.27-.62-.62-.62H2.62c-.17 0-.325.07-.438.183L3 7Z"/><path fill="#E19747" d="M2.62 24.99h26.75c.17 0 .325-.07.436-.184L29 24 3 5l-.817-.817A.618.618 0 0 0 2 4.62v19.75c0 .34.28.62.62.62Z"/><path fill="#44911B" d="M3 23.99V5h25.99v18.99H3Z"/><path fill="#8C5543" d="M9 18.015a10.957 10.957 0 0 1 7-2.515c2.66 0 5.099.945 7 2.518L24.5 24 23 30H9l-1.5-6L9 18.015Z"/><path fill="#6D4534" d="M11.29 18.94 12.65 16H14v14l-2.8-7.87a.952.952 0 0 1 .23-1l1.36-1.33c.16-.16.05-.45-.19-.45h-1.05c-.21 0-.35-.22-.26-.41ZM20.76 18.94 19.4 16H18v14l2.85-7.87c.13-.35.03-.74-.23-1l-1.36-1.33a.265.265 0 0 1 .19-.45h1.05c.21 0 .35-.22.26-.41ZM9 18c-2.43 2.03-4.01 5.09-4 8.5V30h4V18ZM23 18v12h4v-1l-.01-2.51c0-3.41-1.54-6.47-3.99-8.49Z"/><path fill="#E6E6E6" d="M18.05 16.82h-4.11V30h4.11V16.82Z"/><path fill="#E4B29A" d="M16 18.682c-1.107 0-2-.92-2-2.06v-2.56c0-1.14.893-2.06 2-2.06s2 .92 2 2.06v2.56c0 1.14-.893 2.06-2 2.06ZM12.8 10.812a1.66 1.66 0 1 1-3.32 0 1.66 1.66 0 0 1 3.32 0ZM22.52 10.812a1.66 1.66 0 1 1-3.32 0 1.66 1.66 0 0 1 3.32 0Z"/><path fill="#EEBFAA" d="M15.55 3.392c-2.82 0-5.05 2.39-4.85 5.21l.4 5.65c.17 1.77 1.57 3.04 3.27 3.04h3.26c1.7 0 3.1-1.27 3.27-3.04l.4-5.65c.2-2.81-2.03-5.21-4.85-5.21h-.9Z"/><path fill="#fff" d="M12.21 10.502c.15-.61.71-1.07 1.37-1.07.69 0 1.26.49 1.39 1.14.03.14-.08.27-.23.27h-2.26c-.18 0-.31-.16-.27-.34ZM19.8 10.502c-.15-.61-.71-1.07-1.37-1.07-.69 0-1.26.49-1.39 1.14-.03.14.08.27.23.27h2.26c.18 0 .31-.16.27-.34Z"/><path fill="#7D4533" d="M12.88 10.612c0-.5.41-.91.91-.91s.9.4.9.91c0 .08-.01.16-.03.24h-1.75a.986.986 0 0 1-.03-.24ZM19.13 10.612c0-.5-.41-.91-.91-.91s-.91.4-.9.91c0 .08.01.16.03.24h1.75c.02-.08.03-.16.03-.24Z"/><path fill="#000" d="M13.78 10.082a.516.516 0 0 1 .46.76h-.92a.516.516 0 0 1 .46-.76ZM18.22 10.082a.516.516 0 0 0-.46.76h.92a.516.516 0 0 0-.46-.76Z"/><path fill="#fff" d="M13.64 10.252a.16.16 0 1 1-.32 0 .16.16 0 0 1 .32 0ZM18.1 10.252a.16.16 0 1 1-.32 0 .16.16 0 0 1 .32 0Z"/><path fill="#FFF9BA" d="m21.33 4.392-.43-.21c-.3-.15-.58-.35-.82-.59l-.84-.84c-.63-.63-1.56-.84-2.4-.55-.54.19-1.14.19-1.68 0-.74-.37-1.63-.22-2.21.36l-1.02 1.02c-.25.24-.52.44-.83.6l-.43.21a2 2 0 0 0-1.07 2.14l.57 3.13c.07.31.34.54.65.55l-.1-1.46c-.02-.29.1-.58.32-.78l.19-.17c.26-.23.4-.56.4-.9v-.88c0-.25.17-.47.41-.53.65-.16 2.04-.44 3.96-.44s3.31.28 3.96.44c.24.06.41.28.41.53v.88c0 .34.15.67.4.9l.2.18c.22.2.34.48.32.78l-.1 1.45a.68.68 0 0 0 .63-.55l.57-3.13c.17-.87-.27-1.74-1.06-2.14Z"/><path fill="#A56953" d="M19.14 8.932c.11.07.22.11.34.11.17 0 .33-.07.43-.22.19-.24.14-.59-.1-.78-.03-.03-.87-.67-2.09-.52a.56.56 0 0 0 .13 1.11c.727-.087 1.228.257 1.286.297a.48.48 0 0 0 .004.003ZM12.09 8.822c.1.14.27.22.44.22.11 0 .23-.04.33-.1.02-.02.53-.39 1.29-.3.31.03.58-.19.62-.49a.568.568 0 0 0-.49-.62c-1.21-.14-2.06.49-2.09.52-.24.18-.28.53-.1.77Z"/><path fill="#D19479" d="m15.62 10.462-.52 1.7c-.11.35.15.7.52.7h.78c.36 0 .62-.35.52-.7l-.52-1.7c-.13-.37-.66-.37-.78 0Z"/><path fill="#990838" d="M16 13.932c-.55 0-1.06-.13-1.5-.36-.15-.08-.3.09-.21.23.36.56.99.93 1.71.93s1.35-.37 1.71-.93c.09-.14-.07-.31-.21-.23-.44.23-.95.36-1.5.36Z"/><path fill="#433B6B" d="M20.76 9.032h-3.48c-.3 0-.58.14-.77.37a.64.64 0 0 1-.51.24.64.64 0 0 1-.51-.24c-.19-.23-.47-.37-.77-.37h-3.48c-.19 0-.34.15-.34.34v.22c0 .11.05.2.13.26.05.03.07.08.07.13v1.1c0 1.05.85 1.91 1.91 1.91h.71c1.05 0 1.91-.85 1.91-1.91v-.6c.01-.2.17-.35.37-.35.2 0 .36.16.37.36v.6c0 1.06.86 1.91 1.91 1.91H19c1.06 0 1.91-.86 1.91-1.91v-1.11c0-.05.02-.1.06-.13.08-.06.13-.16.13-.26v-.22c0-.19-.15-.34-.34-.34Zm-5.46 1.96c0 .91-.74 1.65-1.65 1.65h-.55c-.91 0-1.65-.74-1.65-1.65v-.73c0-.49.39-.88.88-.88h2.08c.49 0 .88.39.88.88v.73h.01Zm5.28 0c0 .91-.74 1.65-1.65 1.65h-.55c-.91 0-1.65-.74-1.65-1.65v-.73c0-.49.39-.88.88-.88h2.09c.49 0 .88.39.88.88v.73Z"/><path fill="#E4B29A" d="M9.33 24.11c0-.55.45-1 1-1s1 .45 1 1v2.29h-2v-2.29ZM22.68 24.11c0-.55-.45-1-1-1s-1 .45-1 1v2.29h2v-2.29Z"/><path fill="#F92F60" d="M11.31 22.88V30h10.34v-8.19c0-.45-.36-.81-.81-.81H13.2c-1.05-.01-1.89.84-1.89 1.88Z"/><path fill="#433B6B" d="M10.31 30v-8.12c0-1.04.84-1.89 1.89-1.88h8.64c.45 0 .81.36.81.81v.625H12V30h-1.69Z"/><path fill="#E6E6E6" d="M21.64 20.86H12.1a.87.87 0 0 0 0 1.74h9.54v-1.74Z"/><path fill="#EEBFAA" d="M14.26 25.49a.763.763 0 0 0-.77-.73v-.01h-3.3a.87.87 0 0 0-.87.87v3.51c0 .48.39.87.87.87h3.3c.41 0 .76-.32.77-.73 0-.27-.13-.51-.34-.65.21-.13.34-.36.34-.62s-.14-.49-.34-.62c.21-.13.34-.36.34-.62s-.14-.49-.34-.62a.75.75 0 0 0 .34-.65ZM17.73 25.49c.01-.41.36-.73.77-.73v-.01h3.3c.48 0 .87.39.87.87v3.51c0 .48-.39.87-.87.87h-3.3c-.41 0-.76-.32-.77-.73 0-.27.13-.51.34-.65a.722.722 0 0 1-.34-.62c0-.26.14-.49.34-.62a.722.722 0 0 1-.34-.62c0-.26.14-.49.34-.62a.75.75 0 0 1-.34-.65Z"/></svg>
